usr/share/icons/biglinux-icons-material/scalable/apps/system-os-install.svg

<?xml version="1.0" encoding="UTF-8" standalone="no"?>
<svg
   width="24"
   height="24"
   viewBox="0 0 6.349875 6.349875"
   version="1.1"
   id="svg4"
   sodipodi:docname="system-os-installer.svg"
   inkscape:version="1.3 (0e150ed6c4, 2023-07-21)"
   inkscape:export-filename="../../../../../../../../../Imagens/Big Icons/system-os-installer.pdf"
   inkscape:export-xdpi="96"
   inkscape:export-ydpi="96"
   xml:space="preserve"
   xmlns:inkscape="http://www.inkscape.org/namespaces/inkscape"
   xmlns:sodipodi="http://sodipodi.sourceforge.net/DTD/sodipodi-0.dtd"
   xmlns="http://www.w3.org/2000/svg"
   xmlns:svg="http://www.w3.org/2000/svg"><defs
     id="defs4"><radialGradient
       id="paint0_radial_1_27-3"
       cx="0"
       cy="0"
       r="1"
       gradientUnits="userSpaceOnUse"
       gradientTransform="matrix(0,5.8207195,-5.8207195,0,3.1749381,0.26457781)"><stop
         stop-color="#9BDF6C"
         id="stop5989-67"
         offset="0"
         style="stop-color:#9cc8fc;stop-opacity:1;" /><stop
         offset="1"
         stop-color="#204705"
         id="stop5991-5"
         style="stop-color:#549bff;stop-opacity:1;" /></radialGradient><radialGradient
       fx="0"
       fy="0"
       cx="0"
       cy="0"
       r="1"
       gradientUnits="userSpaceOnUse"
       gradientTransform="matrix(0,16.500002,-16.500002,0,9.000002,0.749999)"
       spreadMethod="pad"
       id="radialGradient2"><stop
         style="stop-opacity:1;stop-color:#9cc8fc"
         offset="0"
         id="stop1" /><stop
         style="stop-opacity:1;stop-color:#549bff"
         offset="1"
         id="stop2" /></radialGradient><clipPath
       clipPathUnits="userSpaceOnUse"
       id="clipPath3"><path
         d="M 0,0 H 19 V 19 H 0 Z"
         id="path3" /></clipPath><clipPath
       clipPathUnits="userSpaceOnUse"
       id="clipPath5"><path
         d="M 0,0 H 19 V 19 H 0 Z"
         id="path5-9" /></clipPath><radialGradient
       fx="0"
       fy="0"
       cx="0"
       cy="0"
       r="1"
       gradientUnits="userSpaceOnUse"
       gradientTransform="matrix(0,5.8207192,-5.8207192,0,19.524813,0.26457787)"
       spreadMethod="pad"
       id="radialGradient2-6"><stop
         style="stop-opacity:1;stop-color:#9cc8fc"
         offset="0"
         id="stop1-9" /><stop
         style="stop-opacity:1;stop-color:#549bff"
         offset="1"
         id="stop2-2" /></radialGradient><clipPath
       clipPathUnits="userSpaceOnUse"
       id="clipPath3-2"><path
         d="M 0,0 H 19 V 19 H 0 Z"
         id="path3-4" /></clipPath><clipPath
       clipPathUnits="userSpaceOnUse"
       id="clipPath5-7"><path
         d="M 0,0 H 19 V 19 H 0 Z"
         id="path5-9-7" /></clipPath></defs><sodipodi:namedview
     id="namedview4"
     pagecolor="#ffffff"
     bordercolor="#000000"
     borderopacity="0.25"
     inkscape:showpageshadow="2"
     inkscape:pageopacity="0.0"
     inkscape:pagecheckerboard="0"
     inkscape:deskcolor="#d1d1d1"
     inkscape:zoom="8.9603687"
     inkscape:cx="32.253137"
     inkscape:cy="27.286824"
     inkscape:window-width="2560"
     inkscape:window-height="998"
     inkscape:window-x="0"
     inkscape:window-y="0"
     inkscape:window-maximized="1"
     inkscape:current-layer="svg4"><inkscape:page
       x="0"
       y="0"
       width="6.349875"
       height="6.349875"
       id="page1"
       margin="0"
       bleed="0" /></sodipodi:namedview><g
     id="g1"
     inkscape:groupmode="layer"
     inkscape:label="1"
     transform="matrix(0.26457812,0,0,0.26457812,16.349875,0)" /><g
     id="g2"
     transform="translate(-16.350095,1.8577395e-5)"><path
       id="path2"
       d="m 18.888061,0.29491652 c 0.03175,0 0.06209,-0.004233 0.09101,-0.012347 0.380287,-0.0250467 0.760574,-0.0236357 1.139802,0.002822 0.344305,0.0275161 0.677673,0.10195077 1.000458,0.22436225 0.535859,0.22048176 0.902388,0.60359083 1.100998,1.14791623 0.111476,0.3280769 0.178855,0.6656785 0.199668,1.0113939 0.02752,0.435672 0.01799,0.8695801 -0.03034,1.303841 -0.03704,0.3044412 -0.115709,0.5965354 -0.237062,0.8776938 -0.224715,0.487882 -0.589833,0.8240726 -1.093942,1.0085718 -0.408156,0.1379334 -0.828306,0.2109569 -1.261156,0.2180123 -0.48506,0.026105 -0.965886,-0.011289 -1.44248,-0.1090062 C 17.4798,5.7738001 16.938297,5.2393523 16.734395,4.365539 16.647614,3.9729051 16.607398,3.5746268 16.615864,3.1721153 c -0.0095,-0.4286165 0.03563,-0.8501777 0.136523,-1.2664472 0.214837,-0.8156062 0.733057,-1.32147951 1.554308,-1.51691455 0.191554,-0.0469185 0.385931,-0.0786679 0.581366,-0.093837 z"
       style="fill:url(#radialGradient2-6);fill-rule:evenodd;stroke:none;stroke-width:0.352771" /><g
       opacity="0.1"
       id="g4"
       transform="matrix(0.26457812,0,0,0.26457812,16.349875,1.1060947e-7)"><path
         d="M 9.07,0.75 C 8.531,0.75 7.992,0.766 7.453,0.801 7.371,0.824 7.285,0.836 7.195,0.836 6.641,0.879 6.09,0.969 5.547,1.102 3.219,1.656 1.75,3.09 1.141,5.402 0.977,6.078 0.867,6.758 0.805,7.445 c 1.941,4.305 6.222,7.078 10.945,7.086 1.652,-0.008 3.281,-0.355 4.793,-1.019 0.289,-0.727 0.484,-1.473 0.578,-2.25 0.137,-1.231 0.164,-2.461 0.086,-3.696 C 17.148,6.586 16.961,5.629 16.641,4.699 16.078,3.156 15.039,2.07 13.52,1.445 12.605,1.098 11.66,0.887 10.684,0.809 10.145,0.773 9.609,0.75 9.07,0.75 Z"
         style="fill:#0000ff;fill-opacity:1;fill-rule:nonzero;stroke:none"
         transform="scale(1.3333333)"
         clip-path="url(#clipPath3-2)"
         id="path4" /></g><g
       opacity="0.1"
       id="g6"
       transform="matrix(0.26457812,0,0,0.26457812,16.349875,1.1060947e-7)"><path
         d="M 9.07,0.75 C 8.531,0.75 7.992,0.766 7.453,0.801 7.371,0.824 7.285,0.836 7.195,0.836 6.641,0.879 6.09,0.969 5.547,1.102 3.219,1.656 1.75,3.09 1.141,5.402 0.891,6.438 0.762,7.48 0.75,8.539 c 0,0.152 0,0.301 0.004,0.453 -0.024,1.141 0.09,2.27 0.336,3.383 0.578,2.477 2.113,3.992 4.594,4.543 1.164,0.238 2.336,0.348 3.519,0.328 3.5,-1.164 6.383,-3.684 8.004,-6.996 0.059,-0.891 0.059,-1.785 0,-2.684 C 17.148,6.586 16.961,5.629 16.641,4.699 16.078,3.156 15.039,2.07 13.52,1.445 12.605,1.098 11.66,0.887 10.684,0.809 10.145,0.773 9.609,0.75 9.07,0.75 Z"
         style="fill:#0000ff;fill-opacity:1;fill-rule:nonzero;stroke:none"
         transform="scale(1.3333333)"
         clip-path="url(#clipPath5-7)"
         id="path6-4" /></g><path
       id="path7"
       d="m 19.115598,2.9653916 v 1.3641648 h -0.682259 l 1.091473,1.0914729 1.091473,-1.0914729 H 19.934027 V 2.9653916 Z"
       style="fill:#ffffff;fill-opacity:1;fill-rule:nonzero;stroke:none;stroke-width:0.352771" /><path
       id="path8"
       d="m 18.95156,1.4922207 c 0.183441,0 0.331957,-0.1485165 0.331957,-0.3319574 0,-0.18308802 -0.148516,-0.3319573 -0.331957,-0.3319573 -0.183441,0 -0.330546,0.14886928 -0.330546,0.3319573 0,0.1834409 0.147105,0.3319574 0.330546,0.3319574 z"
       style="fill:#457eff;fill-opacity:1;fill-rule:nonzero;stroke:none;stroke-width:0.352771" /><path
       id="path9"
       d="m 20.12029,1.4922207 c 0.183088,0 0.330546,-0.1485165 0.330546,-0.3319574 0,-0.18308802 -0.147458,-0.3319573 -0.330546,-0.3319573 -0.183441,0 -0.332311,0.14886928 -0.332311,0.3319573 0,0.1834409 0.14887,0.3319574 0.332311,0.3319574 z"
       style="fill:#457eff;fill-opacity:1;fill-rule:nonzero;stroke:none;stroke-width:0.352771" /><path
       id="path10"
       d="m 20.118878,1.1934238 v 0.3114966 c -0.0014,0.1541609 -0.06491,0.3016191 -0.174974,0.4106253 C 19.833487,2.022788 19.684618,2.0834646 19.531868,2.0820535 19.377354,2.0834646 19.228485,2.022788 19.11842,1.9155457 19.008003,1.8065395 18.945915,1.6590813 18.944504,1.5049204 V 1.1934238"
       style="fill:none;stroke:#ffffff;stroke-width:0.24253;stroke-linecap:round;stroke-linejoin:round;stroke-miterlimit:4;stroke-dasharray:none;stroke-opacity:1" /></g></svg>

<svg xmlns="http://www.w3.org/2000/svg" xml:space="preserve" width="24" height="24" viewBox="0 0 6.35 6.35"><defs><clipPath id="b" clipPathUnits="userSpaceOnUse"><path d="M0 0h19v19H0Z"/></clipPath><clipPath id="c" clipPathUnits="userSpaceOnUse"><path d="M0 0h19v19H0Z"/></clipPath><radialGradient id="a" cx="0" cy="0" r="1" fx="0" fy="0" gradientTransform="rotate(90 9.63 9.895) scale(5.82072)" gradientUnits="userSpaceOnUse" spreadMethod="pad"><stop offset="0" style="stop-opacity:1;stop-color:#9cc8fc"/><stop offset="1" style="stop-opacity:1;stop-color:#549bff"/></radialGradient></defs><path d="M18.888.295a.335.335 0 0 0 .091-.012c.38-.025.76-.024 1.14.002a3.62 3.62 0 0 1 1 .225c.536.22.903.603 1.101 1.148.112.328.18.665.2 1.011.028.436.018.87-.03 1.304a3.166 3.166 0 0 1-.237.878c-.225.487-.59.824-1.094 1.008a4.125 4.125 0 0 1-1.262.218 5.644 5.644 0 0 1-1.442-.109c-.875-.194-1.417-.729-1.62-1.602a5.025 5.025 0 0 1-.12-1.194 4.89 4.89 0 0 1 .137-1.266c.215-.816.733-1.322 1.555-1.517.191-.047.386-.079.581-.094z" style="fill:url(#a);fill-rule:evenodd;stroke:none;stroke-width:.352771" transform="translate(-16.35)"/><path d="M9.07.75c-.539 0-1.078.016-1.617.051a.951.951 0 0 1-.258.035 10.27 10.27 0 0 0-1.648.266c-2.328.554-3.797 1.988-4.406 4.3a13.969 13.969 0 0 0-.336 2.043 12.03 12.03 0 0 0 10.945 7.086 12.058 12.058 0 0 0 4.793-1.019 8.974 8.974 0 0 0 .578-2.25c.137-1.231.164-2.461.086-3.696a10.762 10.762 0 0 0-.566-2.867c-.563-1.543-1.602-2.629-3.121-3.254a10.26 10.26 0 0 0-2.836-.636A24.175 24.175 0 0 0 9.07.75Z" clip-path="url(#b)" opacity=".1" style="fill:#00f;fill-opacity:1;fill-rule:nonzero;stroke:none" transform="scale(.35277)"/><path d="M9.07.75c-.539 0-1.078.016-1.617.051a.951.951 0 0 1-.258.035 10.27 10.27 0 0 0-1.648.266c-2.328.554-3.797 1.988-4.406 4.3a13.982 13.982 0 0 0-.387 3.59c-.024 1.141.09 2.27.336 3.383.578 2.477 2.113 3.992 4.594 4.543 1.164.238 2.336.348 3.519.328a13.735 13.735 0 0 0 8.004-6.996c.059-.891.059-1.785 0-2.684a10.762 10.762 0 0 0-.566-2.867c-.563-1.543-1.602-2.629-3.121-3.254a10.26 10.26 0 0 0-2.836-.636A24.175 24.175 0 0 0 9.07.75Z" clip-path="url(#c)" opacity=".1" style="fill:#00f;fill-opacity:1;fill-rule:nonzero;stroke:none" transform="scale(.35277)"/><path d="M19.116 2.965V4.33h-.683l1.092 1.091 1.091-1.091h-.682V2.965Z" style="fill:#fff;fill-opacity:1;fill-rule:nonzero;stroke:none;stroke-width:.352771" transform="translate(-16.35)"/><path d="M18.952 1.492a.332.332 0 1 0 0-.663.332.332 0 0 0 0 .663zM20.12 1.492a.33.33 0 0 0 .33-.332.331.331 0 1 0-.662 0c0 .184.149.332.332.332z" style="fill:#457eff;fill-opacity:1;fill-rule:nonzero;stroke:none;stroke-width:.352771" transform="translate(-16.35)"/><path d="M20.119 1.193v.312a.586.586 0 0 1-1.174 0v-.312" style="fill:none;stroke:#fff;stroke-width:.24253;stroke-linecap:round;stroke-linejoin:round;stroke-miterlimit:4;stroke-dasharray:none;stroke-opacity:1" transform="translate(-16.35)"/></svg>
